svgs/thin/box-archive.svg

<svg xmlns="http://www.w3.org/2000/svg" viewBox="0 0 512 512"><!-- Font Awesome Pro 6.0.0-alpha2 by @fontawesome - https://fontawesome.com License - https://fontawesome.com/license (Commercial License) --><path d="M480 32H32C14.312 32 0 46.312 0 64V128C0 136.812 7.188 144 16 144H32V432C32 458.508 53.49 480 80 480H432C458.51 480 480 458.508 480 432V144H496C504.812 144 512 136.812 512 128V64C512 46.312 497.688 32 480 32ZM464 432C464 449.645 449.645 464 432 464H80C62.355 464 48 449.645 48 432V144H464V432ZM496 128H16V64C16 55.18 23.178 48 32 48H480C488.822 48 496 55.18 496 64V128ZM168 256H344C348.418 256 352 252.418 352 248S348.418 240 344 240H168C163.582 240 160 243.582 160 248S163.582 256 168 256Z"/></svg>

<svg xmlns="http://www.w3.org/2000/svg" viewBox="0 0 512 512"><!--! Font Awesome Pro 6.3.0 by @fontawesome - https://fontawesome.com License - https://fontawesome.com/license (Commercial License) Copyright 2023 Fonticons, Inc. --><path d="M480 32H32C14.31 32 0 46.31 0 64v64c0 8.812 7.188 16 16 16H32v288C32 458.5 53.49 480 80 480h352c26.51 0 48-21.49 48-48v-288h16C504.8 144 512 136.8 512 128V64C512 46.31 497.7 32 480 32zM464 432c0 17.64-14.36 32-32 32h-352c-17.64 0-32-14.36-32-32v-288h416V432zM496 128h-480V64c0-8.82 7.178-16 16-16h448c8.822 0 16 7.18 16 16V128zM168 256h176C348.4 256 352 252.4 352 248S348.4 240 344 240h-176C163.6 240 160 243.6 160 247.1S163.6 256 168 256z"/></svg>
